X: 390
T: A Thousand Farewells
R: slide
M: 12/8
K: Dmajor
FA|dAF EFE dBA ~A2 D|FEF BAF BAF EFA|
dAF ~E3 dBA ~A3|~F3 BAF EDc dfe|
dAF EFE DBA ~A2 d|FEF ~A3 dAF EFA|
dAF ~e3 dBA ~A3|~F3 BAF ~E3 Dfe||
d2 d ~f3 afd edB|~A3 DFA BAF EFA|
dcd fef a2 d edA|B/c/dB AFA B/c/dc d2 A|
~d3 ~f3 afd edB|~A3 DF/G/A ~B3 E2 A|
dcd f2 f afd e2 A|BdB ~A3 Bd/c/d d||

